korla/actions/symbolic/star-new-symbolic.svg

<svg style="clip-rule:evenodd;fill-rule:evenodd;stroke-linejoin:round;stroke-miterlimit:2" version="1.1" viewBox="0 0 16 16" xmlns="http://www.w3.org/2000/svg">
 <path d="M12.49,8C12.87,8 13.24,8.063 13.6,8.154L16,6.203L10.12,5.887L8,0.393L5.88,5.887L0,6.203L4.57,9.918L3.05,15.609L8,12.41C8.05,9.98 10.05,8 12.49,8Z" style="fill-opacity:.5;fill-rule:nonzero;fill:rgb(223,223,223)"/>
 <path d="m12.5 9c-1.93 0-3.5 1.567-3.5 3.5s1.57 3.5 3.5 3.5 3.5-1.567 3.5-3.5-1.57-3.5-3.5-3.5zm-0.5 1h1v2h2v1h-2v2h-1v-2h-2v-1h2v-2z" style="fill-rule:nonzero;fill:rgb(223,223,223)"/>
</svg>

<svg xmlns="http://www.w3.org/2000/svg" width="16" height="16" version="1.1">
 <path style="fill:#dfdfdf" d="M 12.49,8 C 12.87,8 13.24,8.063 13.6,8.154 L 16,6.203 10.12,5.887 8,0.393 5.88,5.887 0,6.203 4.57,9.918 3.05,15.609 8,12.41 C 8.05,9.98 10.05,8 12.49,8 Z"/>
 <path style="fill:#dfdfdf" d="M 12.5,9 C 10.57,9 9,10.567 9,12.5 9,14.433 10.57,16 12.5,16 14.43,16 16,14.433 16,12.5 16,10.567 14.43,9 12.5,9 Z M 12,10 H 13 V 12 H 15 V 13 H 13 V 15 H 12 V 13 H 10 V 12 H 12 Z"/>
</svg>
